X:1
T:Intermezzo
T:Intermezzo
T:from 6 Klavierstücke
T:Johannes Brahms, Op. 118 No. 2
C:Johannes Brahms, Op. 118
%%score { ( 1 2 6 ) | ( 3 4 5 ) }
L:1/8
Q:1/4=72
M:3/4
K:A
V:1 treble nm="Piano" snm="Pno."
V:2 treble 
V:6 treble 
V:3 bass 
V:4 bass 
V:5 bass 
V:1
"^Andante teneramente"!p! (cB) | [Fd]4 cB | !arpeggio![Fa]4!<(! ((A>B)) | (B>e)!<)!!>(! e2 d2 | %4
 [CA]2 [B,G]2!>)!"^dolce"!p! (cB) | [Ad]4 cB | [ABfa]4!<(! ((c>^d) | (^d>e)!<)!!>(! e2 [A,^DF]2 | %8
 [A,^DA]2 [G,EG]2)!>)!!pp! (cB) | [Fd]4 cB | !arpeggio![Fa]4!<(! ([FA]>[=FB]) | %11
 ([=FB]>[Ee])!<)!!>(! [Ee]2 d2 | [CA]2 [B,G]2!>)!"^dolce"!p! (cB) | [Ad]4 cB | %14
 [ABfa]4!<(! (([Gc]>[FB^d]) | ([FB^d]>[EBe])!<)!!>(! [Ee]2 [A,^DF]2 | %16
 [A,^DA]2 [G,EG]2)!>)!!p!!<(! E2!<)! | F2!>(! E2!>)!!<(! E2!<)! | F2!>(! E2!>)! E2- | %19
 B2!<(! A2 G2!<)! | [GB]2 E2!p!!<(! A2!<)! | B2!>(! A2!>)!!<(! A2!<)! | %22
 B2!>(!"_cresc." A2!>)! [=C^FA]2 | ^f2 =c3 A | G4 FE |!p! G4 A2 | ^A4 GF | B4 ^B2 |!<(! c4 =BA | %29
 [Ad]3 c2 B!<)! |!f![Q:1/4=50] !arpeggio![Fa]4[Q:1/4=65] [A,EA]2 |[Q:1/4=72]!mf! G2 F2 ED | %32
 C2 B,2 A2 |!mp![Q:1/4=64] =G2 =F2 ED | =C2[Q:1/4=30] B,2[Q:1/4=64]!p! ga | [df]4 ga | B4 B>c | %37
 c>d dcdG | [DG]2 [CA]2!<(! A2!<)! | B2!>(! A2!>)!!<(! A2!<)! | B2!>(! A2!>)!!<(! A2!<)! | %41
 d2!>)!!>(! c3 B | [DG]2 [CA]2!<(! A2!<)! | B2!>(! A2!>)!!<(! A2!<)! | B2!>(! A2!>)! A2 | f2 d3 B | %46
[Q:1/4=50] G2 A2 E2 | [DE]4 E2- | !arpeggio!E4!p! c2- |:[Q:1/4=72]"^in tempo" cf e2 d2 | c2 Bdgf | %51
 B2 Acfe | AG edBG | [Ac]a g2 f2 | e2 Acfe | c2 FAdc | ^E2 G3 c- :| %57
"^piu lento"[Q:1/4=56]!pp! (cf) [^E^A^e]2 [^DA^d]2 | [C^Ac]2 [FAf]2 [^EA^e]2 | %59
"_Ritardando -----------------------------------"[Q:1/4=50] [^D^A^d]2 [CAc]2 [=C_G_B=c]2 | %60
[Q:1/4=40] [=F=A=c]2 ^c4- |[Q:1/4=56]!pp! (cf) [^E^A^e]2 [^D=A^d]2 | [CGc]2 [FG^Bf]2 [^EGc^e]2 | %63
"_Ritardando ------------"[Q:1/4=50] [^DGB^d]2 [C^Ac]2 [CFB]2 | c2 !fermata!c3 C- | %65
"^in tempo"[Q:1/4=72] C!p!F c2 f2 |"^cresc." e2 d2 z2 | d2 c2 z2 | c2 B2 z2 |!f! cc'bagf | %70
 e2 Aced | c2 G^AcB | AFD^B,C[I:staff +1]^E, |[I:staff -1] z2!>(! (3z A,C (3FAc!>)! | %74
!p![Q:1/4=62]"_Ritardando" [Ee]2 [Dd]2 z2 |[Q:1/4=50] D2 C2 z2 | !fermata!c3 B!pp! cB | %77
[Q:1/4=62] [Fd]4 cB |[Q:1/4=72] !arpeggio![Fa]4!<(! ([Bg]>[Af]) | %79
 ([Af]>[G=f])!<)!!>(! ([Gf][Ae] [Fd][DB]) | [CA]2 [B,G]2!>)!"^dolce"!p! (cB) | [Ad]4 cB | %82
 [ABf]2!<(! [AB^d]2 ((g>f) | f>e!<)!!>(! [^Be]c cF | [A,^DA]2 [G,EG]2)!>)!!p!!<(! E2!<)! | %85
 F2!>(! E2!>)!!<(! E2!<)! | F2!>(! E2!>)! E2- | B2!<(! A2 G2!<)! | [GB]2 E2!p!!<(! A2!<)! | %89
 B2!>(! A2!>)!!<(! A2!<)! | B2!>(!"_cresc." A2!>)! [=C^FA]2 | ^f2 =c3 A | (G4 FE |!p! G4 A2 | %94
 ^A4 GF | B4 ^B2) |!<(! (c4 =BA | [Ad]3 c2 B)!<)! | %98
!f![Q:1/4=50] !arpeggio![Fa]4[Q:1/4=65] [A,EA]2 |!mf![Q:1/4=72] G2 F2 ED | C2 B,2 A2 | %101
!mp![Q:1/4=64] =G2 =F2 ED | =C2[Q:1/4=30] B,2[Q:1/4=64]!p! ga | [df]4 ga | B4 B>c | c>d dcdG | %106
 [DG]2 [CA]2!<(! A2!<)! | B2!>(! A2!>)!!<(! A2!<)! | B2!>(! A2!>)!!<(! A2!<)! | d2!>)!!>(! c3 B | %110
 [DG]2 [CA]2!<(! A2!<)! | B2!>(! A2!>)!!<(! A2!<)! | B2!>(! A2!>)! A2 | f2 d3 B | %114
[Q:1/4=50] G2 A2 E2 | [DE]4 E2- | !arpeggio!!fermata!E4 |] %117
V:2
 AG | x4 AG | x4 F2 | [EG]2 [EA]2 F2 | x4 E2 | x4 [EA]2 | x4 [FB]2 | [FB]2 [Ec]2 x2 | x4 AG | %9
 x4 AG | x4 A2 | G2 GA ^F2 | x4 E2 | x4 [EA]2 | x6 | x2 GA x2 | x4 [=G,=C]2- | [G,C]4 [=G,^C]2- | %18
 [G,C]4 [^G,D-]2 | [DE]2 [DE]2 [DE]2 | D4 [=C=F]2- | [CF]4 [=C^D]2- | [CD]4 x2 | x6 | x6 | x6 | %26
 x6 | x6 | x6 | x3 ^G3 | x6 | [A,B,]4[I:staff +1] [E,A,]2 | [F,A,]4[I:staff -1] [A,E]2 | %33
 [A,B,]4[I:staff +1] [E,A,]2 | [=F,A,]4[I:staff -1] [A-e]2 | AGAF [A-e]2 | [FA]G[B,A]F [EA]2 | %37
 [EG]2 [DF]2 [DE]2 | x4 [CF]2- | [CF]4 [DF]2- | [DF]4 [DF]2 | [FA]2 [EG]4 | x4 [CF]2- | %43
 [CF]4 [DF]2- | [DF]4 [DF]2 | x6 | [CE]4 CB, |[I:staff +1] [F,A,]4[I:staff -1] CB, | x6 |: x6 | %50
 x6 | x6 | x6 | x6 | G2 F2 z2 | E2 ^D2 z2 | C2 x4 :| [F^A]2 x4 | x6 | x6 | x2 C^E^A^G | F2 x4 | %62
 x6 | x2 c4- | [CF^A]2 [C^EG]3 x | x6 | x2[I:staff +1] B,[I:staff -1]DAG | %67
 x2[I:staff +1] A,[I:staff -1]CGF |[I:staff +1] A,G,[I:staff -1]EDB,G, | %69
 x2[I:staff +1] C[I:staff -1]cBA | G2 F2 z2 | E2 E2 z2 | C2 A,2 G,2 | x6 | A4 z2 | A,4 x2 | %76
 [^DFA]4 [=DG]2 | x4 AG | x6 | x6 | x4 E2 | x4 [EA]2 | (b3 a) [Gc]>[F^d] | [FB]>[E^B] E A2 x | %84
 x4 [=G,=C]2- | [G,C]4 [=G,^C]2- | [G,C]4 [^G,D-]2 | [DE]2 [DE]2 [DE]2 | D4 [=C=F]2- | %89
 [CF]4 [=C^D]2- | [CD]4 x2 | x6 | x6 | x6 | x6 | x6 | x6 | x3 ^G3 | x6 | %99
 [A,B,]4[I:staff +1] [E,A,]2 | [F,A,]4[I:staff -1] [A,E]2 | [A,B,]4[I:staff +1] [E,A,]2 | %102
 [=F,A,]4[I:staff -1] [A-e]2 | AGAF [A-e]2 | [FA]G[B,A]F [EA]2 | [EG]2 [DF]2 [DE]2 | x4 [CF]2- | %107
 [CF]4 [DF]2- | [DF]4 [DF]2 | [FA]2 [EG]4 | x4 [CF]2- | [CF]4 [DF]2- | [DF]4 [DF]2 | x6 | %114
 [CE]4 CB, |[I:staff +1] [F,A,]4[I:staff -1] CB, | x4 |] %117
V:3
 [A,,E,]2 |!ped![I:staff -1] FD[I:staff +1]A,F, [A,,D,]2!ped-up! | %2
!ped! (A,,,D,)(A,,F,,) (D,,D,)!ped-up! |!ped! ([D,E,G,]B,) ([C,E,]A,) (B,,,D,)!ped-up! | %4
!ped! (E,,E,) (E,F,) [E,=G,]2!ped-up! |!ped![I:staff -1] AD[I:staff +1]A,F, E,,2!ped-up! | %6
!ped! (^D,,B,,) ([^D,F,]B,) ([A,,B,,]A,)!ped-up! |!ped! ([G,,B,,]G,) ([A,,F,]A,) (B,,F,)!ped-up! | %8
!ped! E,, B,,2 E,- E,2!ped-up! |!ped![I:staff -1] FD[I:staff +1]A,F, [A,,D,]2!ped-up! | %10
!ped! (A,,,D,)(A,,F,,) (D,,D,)!ped-up! |!ped! ([D,=F,G,]B,) ([C,E,B,]A,) (B,,,D,)!ped-up! | %12
!ped! (E,,E,) (E,F,) [E,=G,]2!ped-up! |!ped![I:staff -1] AD[I:staff +1]A,F, E,,2!ped-up! | %14
!ped! (^D,,B,,) ([^D,F,]B,) ([A,,B,,]A,)!ped-up! |!ped! ([G,,B,,]G,) ([A,,F,]A,) (B,,F,)!ped-up! | %16
!ped! E,,B,,E,B,,!ped-up!!ped! E,,=G,, | =C,E,C,=G,,!ped-up!!ped! E,,G,, | %18
^C,E,C,=G,,!ped-up!!ped! B,,E, | ^G,E,A,E,B,E,!ped-up! |!ped! A,,E,G,E,!ped-up!!ped! A,,=C, | %21
 =F,A,F,=C,!ped-up!!ped! A,,C, |^D,A,D,=C,!ped-up!!ped! E,,C,!ped-up! |!ped! A,^D,A,=CFC!ped-up! | %24
!ped! A,=CA,E,=C,A,,!ped-up! |!ped![I:staff -1]xB,G,[I:staff +1]E,=CA,!ped-up! | %26
!ped![I:staff -1]x^C^A,[I:staff +1]E,EC!ped-up! |!ped![I:staff -1]xDB,[I:staff +1]E,^D^B,!ped-up! | %28
!<(!!ped![I:staff -1]xEC[I:staff +1]E,=GC |[I:staff -1]xD[I:staff +1]A,E,,E,^G,!<)! | %30
 D,,F,[D,A,][F,D] C,,B,,,!ped-up! | A,, A,,2 A,, A,,2 | A,, A,,2 A,, A,,2 | A,, A,,2 A,, A,,2 | %34
 A,, A,,2 A,,!ped! [C,E,A,E]2 | [D,,A,,]2 [D,^F,]A,!ped-up!!ped! [C,E,A,E]2 | %36
 [D,,A,,]2 [^D,F,]A,!ped-up!!ped! E,,E, | [E,G,]C [B,,F,]B, [E,,B,,]E,!ped-up! | %38
!ped! A,,E,A,G,!ped-up!!ped! F,A, |CA,F,E,!ped-up!!ped! D,F, |A,F,D,C,!ped-up!!ped! B,,D, | %41
 F,A, E,G,B,D!ped-up! |!ped! A,,E,A,G,,!ped-up!!ped! F,,C, |A,C,F,,E,,!ped-up!!ped! D,,A,, | %44
F,A,,D,,C,,!ped-up!!ped! B,,,B,, |D,F,A,DFD!ped-up! |!ped! E,,C,E,A, G,2!ped-up! | %47
!ped! E,,,E,,A,,C, G,2!ped-up! | !arpeggio![A,,,E,A,]4 z2 |:!ped! (3F,,C,A, (3CA,F,(3FA,F, | %50
 (3EA,F, (3DA,F,(3B,,F,A, | (3DA,F, (3CA,F,(3C,E,A, | (3CF,D, (3B,F,G,,(3C,^E,B, | %53
 (3F,,A,F, (3CA,F,(3AA,F, | (3D,,A,,D,(3F,A,D, (3F,,D,A, | (3G,,E,G, (3G,,^D,F,(3^B,F,D, | %56
 (3C,,G,,C,(3^E,G,B, ^E z!ped-up! :|"_una corda""_legato" ([F,,C,^A,]2 [C,A,C]2) [F,A,F]2 | %58
 [^E,^A,^E]2 [^D,A,^D]2 [C,A,C]2 | [F,^A,F]2 [^E,A,^E]2 [_E,_G,_B,_E]2 | %60
 [=F,=A,=C]2 [^A,,^E,^A,]2 [C,E,B,]2 | ([F,,C,^A,]2 [C,A,C]2) [F,=A,F]2 | %62
 [^E,G,^E]2 [^D,G,^D]2 [C,G,C]2 | [F,G,=B,F]2 [^E,G,B,^E]2 [^D,F,^D]2 | [C,G,C]2 [C,^E,G,B,]3 z | %65
"_tre corde"!ped! (3F,,C,A, (3EA,F, (3DA,F, | (3CF,D, (3B,F,B,, (3B,,,B,,D, | %67
 (3A,F,C, (3A,F,B,, (3A,,,A,,C, | [B,,D,]2 (3G,,B,F, (3C,,^E,C, | (3F,,C,A, (3CA,F, (3A,F,C, | %70
 (3D,,A,,D, (3F,A,D, (3F,^A,D, | (3B,,,F,,B,, (3D,F,B,, (3D,=G,B,, | %72
 (3C,,C,A,, (3F,C,C,, (3^E,B,,C,,!ped-up! |!ped! [B,,G,]2 [A,,F,]2 z2!ped-up! | %74
!ped! [F,A,]2 (3z F,,A,,(3D,F,[I:staff -1]A,!ped-up! | %75
!ped![I:staff +1] E,,2- (3E,,E,A, (3C[I:staff -1]EA!ped-up! | %76
!ped![I:staff +1] E,4 [A,,E,]2!ped-up! |!ped![I:staff -1] FD[I:staff +1]A,F, [A,,D,]2!ped-up! | %78
!ped! (A,,,D,)(A,,F,,) (D,,D,)!ped-up! |!ped! ([F,A,][G,B,]) ([G,B,][A,C]) (B,,,D,)!ped-up! | %80
!ped! (E,,E,) (E,F,) [E,=G,]2!ped-up! |!ped![I:staff -1] AD[I:staff +1]A,F, E,,2!ped-up! | %82
!ped! ([^D,,B,,]^D,) ([F,,B,,]F,) ([A,,B,,]B,)!ped-up! |!ped! (B,,E,) (E,F,) (F,A,)!ped-up! | %84
!ped! E,,B,,E,B,,!ped-up!!ped! E,,=G,, | =C,E,C,=G,,!ped-up!!ped! E,,G,, | %86
 ^C,E,C,=G,,!ped-up!!ped! B,,E, | ^G,E,A,E,B,E,!ped-up! |!ped! A,,E,G,E,!ped-up!!ped! A,,=C, | %89
 =F,A,F,=C,!ped-up!!ped! A,,C, |^D,A,D,=C,!ped-up!!ped! E,,C,!ped-up! |!ped! A,^D,A,=CFC!ped-up! | %92
!ped! A,=CA,E,=C,A,,!ped-up! |!ped![I:staff -1]xB,G,[I:staff +1]E,=CA,!ped-up! | %94
!ped![I:staff -1]x^C^A,[I:staff +1]E,EC!ped-up! |!ped![I:staff -1]xDB,[I:staff +1]E,^D^B,!ped-up! | %96
!<(!!ped![I:staff -1]xEC[I:staff +1]E,=GC |[I:staff -1]xD[I:staff +1]A,E,,E,^G,!<)! | %98
 (D,,F,[D,A,][F,D]) C,,B,,,!ped-up! | A,, A,,2 A,, A,,2 | A,, A,,2 A,, A,,2 | A,, A,,2 A,, A,,2 | %102
 A,, A,,2 A,,!ped! [C,E,A,E]2 | [D,,A,,]2 [D,^F,]A,!ped-up!!ped! [C,E,A,E]2 | %104
 [D,,A,,]2 [^D,F,]A,!ped-up!!ped! E,,E, | [E,G,]C [B,,F,]B, [E,,B,,]E,!ped-up! | %106
!ped! A,,E,A,G,!ped-up!!ped! F,A, |CA,F,E,!ped-up!!ped! D,F, |A,F,D,C,!ped-up!!ped! B,,D, | %109
F,A, E,G,B,D!ped-up! |!ped! A,,E,A,G,,!ped-up!!ped! F,,C, |A,C,F,,E,,!ped-up!!ped! D,,A,, | %112
 F,A,,D,,C,,!ped-up!!ped! B,,,B,, |D,F,A,DFD!ped-up! |!ped! E,,C,E,A, G,2!ped-up! | %115
!ped! E,,,E,,A,,C, G,2!ped-up! | !arpeggio![A,,,E,A,]4 |] %117
V:4
 x2 | A,,,2 x4 | x6 | x6 | x6 | F,,2 x4 | x6 | x4 B,,2 | E,,4 A,,2 | A,,,2 x4 | x6 | x6 | x6 | %13
 F,,2 x4 | x6 | x4 B,,2 | E,,4 E,,2- | E,,4 E,,2- | E,,4 E,,2 | G,2 A,2 B,2 | A,,4 A,,2- | %21
 A,,4 A,,2- | A,,4 ^D,,2 | x6 | x6 | E,,2 x4 | E,,2 x4 | E,,2 x4 | E,,2 x4 | E,,2 x4 | x4 A,,2- | %31
 D,,4 C,,B,,, | D,,4 C,,B,,, | D,,4 =C,,B,,, | D,,4 x2 | x6 | x6 | x6 | A,,4 A,,2- | A,,4 A,,2- | %40
 A,,4 A,,2- | A,,2 A,,4 | A,,2 x2 F,,2 | x4 D,,2 | x4 B,,,2 | x6 | x4 E,,,2 | x4 E,,2 | %48
[I:staff -1] !arpeggio!A4[I:staff +1] z2 |: x2 C2 F2 | E2 D2 z2 | D2 C2 z2 | C2 B,2 z2 | x2 C2 A2 | %54
 x6 | x6 | x6 :| x6 | x6 | x6 | x6 | x6 | x6 | x6 | x6 | x2 E2 D2 | C2 B,2 x2 | A,2 A,2 x2 | x6 | %69
 x6 | x6 | x6 | x6 | F,,4 z2 | x6 | x6 | x6 | A,,,2 x4 | x6 | D,2 C,2 x2 | x6 | F,,2 x4 | x6 | %83
 G,,2 A,,2 B,,2 | E,,4 E,,2- | E,,4 E,,2- | E,,4 E,,2 | G,2 A,2 B,2 | A,,4 A,,2- | A,,4 A,,2- | %90
 A,,4 ^D,,2 | x6 | x6 | E,,2 x4 | E,,2 x4 | E,,2 x4 | E,,2 x4 | E,,2 x4 | x4 A,,2- | D,,4 C,,B,,, | %100
 D,,4 C,,B,,, | D,,4 =C,,B,,, | D,,4 x2 | x6 | x6 | x6 | A,,4 A,,2- | A,,4 A,,2- | A,,4 A,,2- | %109
 A,,2 A,,4 | A,,2 x2 F,,2 | x4 D,,2 | x4 B,,,2 | x6 | x4 E,,,2 | x4 E,,2 | %116
[I:staff -1] !arpeggio!A4 |] %117
V:5
 x2 | x6 | x6 | x6 | x6 | x6 | x6 | x6 | x6 | x6 | x6 | x6 | x6 | x6 | x6 | x6 | x6 | x6 | x6 | %19
 x6 | x6 | x6 | x6 | x6 | x6 | x6 | x6 | x6 | x6 | x6 | x6 | x6 | x6 | x6 | x6 | x6 | x6 | x6 | %38
 x6 | x6 | x6 | x6 | x6 | x6 | x6 | x6 | x6 | x4 E,,D, | x6 |: x6 | x6 | x6 | x6 | x6 | x6 | x6 | %56
 x6 :| x6 | x6 | x6 | x6 | x6 | x6 | x6 | x6 | x6 | x6 | x6 | x6 | x6 | x6 | x6 | x6 | x6 | x6 | %75
 x6 | x6 | x6 | x6 | x6 | x6 | x6 | x6 | x6 | x6 | x6 | x6 | x6 | x6 | x6 | x6 | x6 | x6 | x6 | %94
 x6 | x6 | x6 | x6 | x6 | x6 | x6 | x6 | x6 | x6 | x6 | x6 | x6 | x6 | x6 | x6 | x6 | x6 | x6 | %113
 x6 | x6 | x4 E,,D, | x4 |] %117
V:6
 x2 | x6 | x6 | x6 | x6 | x6 | x6 | x6 | x6 | x6 | x6 | x6 | x6 | x6 | x6 | x6 | x6 | x6 | x6 | %19
 x6 | x6 | x6 | x6 | x6 | x6 | x6 | x6 | x6 | x6 | x6 | x6 | x6 | x6 | x6 | x6 | x6 | x6 | x6 | %38
 x6 | x6 | x6 | x6 | x6 | x6 | x6 | x6 | x6 | x6 | x6 |: x6 | x6 | x6 | x6 | x6 | x6 | x6 | x6 :| %57
 x6 | x6 | x6 | x2 C2- [C^E]2 | x6 | x6 | x6 | x6 | x6 | x6 | x6 | x6 | x6 | x6 | x6 | x6 | x6 | %74
 x6 | x6 | x6 | x6 | x6 | x6 | x6 | x6 | x6 | x6 | x6 | x6 | x6 | x6 | x6 | x6 | x6 | x6 | x6 | %93
 x6 | x6 | x6 | x6 | x6 | x6 | x6 | x6 | x6 | x6 | x6 | x6 | x6 | x6 | x6 | x6 | x6 | x6 | x6 | %112
 x6 | x6 | x6 | x6 | x4 |] %117

